Newaita-dark/mimetypes/22/payment-card-mastercard.svg

<svg height="22pt" viewBox="0 0 22 22" width="22pt" xmlns="http://www.w3.org/2000/svg" xmlns:xlink="http://www.w3.org/1999/xlink"><linearGradient id="a" gradientUnits="userSpaceOnUse" x1="11.3699116" x2="11.3699116" y1="17.90894815" y2="18.81854134324"><stop offset="0" stop-opacity=".27451"/><stop offset="1" stop-opacity="0"/></linearGradient><linearGradient id="b"><stop offset="0" stop-opacity=".313725"/><stop offset=".222222" stop-opacity=".27451"/><stop offset="1" stop-opacity="0"/></linearGradient><radialGradient id="c" cx="450.90894" cy="189.57936" gradientTransform="matrix(.00000012 -.0537161 -.0966889 -.00000007 36.749414 42.357404)" gradientUnits="userSpaceOnUse" r="21.166656" xlink:href="#b"/><radialGradient id="d" cx="450.90894" cy="189.57936" gradientTransform="matrix(-.00000012 .0537161 .0966889 .00000007 -14.919205 -6.53953)" gradientUnits="userSpaceOnUse" r="21.166656" xlink:href="#b"/><radialGradient id="e" cx="450.90894" cy="189.57936" gradientTransform="matrix(-.00000012 -.0537161 .0966889 -.00000007 -14.919205 42.357404)" gradientUnits="userSpaceOnUse" r="21.166656" xlink:href="#b"/><radialGradient id="f" cx="450.90894" cy="189.57936" gradientTransform="matrix(.00000012 .0537161 -.0966889 .00000007 36.749413 -6.53953)" gradientUnits="userSpaceOnUse" r="21.166656" xlink:href="#b"/><linearGradient id="g" gradientUnits="userSpaceOnUse" x1="10.9151166" x2="10.9151166" y1="21.09252153649" y2="1.08147429324"><stop offset="0" stop-color="#424242"/><stop offset="1" stop-color="#616161"/></linearGradient><linearGradient id="h" gradientUnits="userSpaceOnUse" x1="8.18633745" x2="7.95893904426" y1="17.68154716926" y2="4.265049825"><stop offset="0" stop-color="#f44336"/><stop offset="1" stop-color="#ef5350"/></linearGradient><linearGradient id="i" gradientUnits="userSpaceOnUse" x1="12.9617009625" x2="12.9617009625" y1="17.908946575" y2="4.265050825"><stop offset="0" stop-color="#ffa726"/><stop offset="1" stop-color="#ffb74d"/></linearGradient><linearGradient id="j" gradientUnits="userSpaceOnUse" x1="12.9617009625" x2="12.9617009625" y1="17.908945575" y2="4.265049825"><stop offset="0" stop-color="#ff7043"/><stop offset="1" stop-color="#ff8a65"/></linearGradient><path d="m3.183594 17.910156h15.464844v.910156h-15.464844zm0 0" fill="url(#a)"/><path d="m18.648438 17.910156h1.816406v-.910156h-1.816406zm0 0" fill="url(#c)"/><path d="m3.183594 17.910156h-1.820313v.910156h1.820313zm0 0" fill="url(#d)"/><path d="m3.183594 17.910156h-1.820313v-.910156h1.820313zm0 0" fill="url(#e)"/><path d="m18.648438 17.910156h1.816406v.910156h-1.816406zm0 0" fill="url(#f)"/><path d="m2.730469 4.265625h16.371093c.503907 0 .910157.40625.910157.910156v11.824219c0 .5-.40625.910156-.910157.910156h-16.371093c-.503907 0-.910157-.410156-.910157-.910156v-11.824219c0-.503906.40625-.910156.910157-.910156zm0 0" fill="url(#g)"/><path d="m2.730469 4.265625c-.503907 0-.910157.40625-.910157.910156v.226563c0-.503906.40625-.910156.910157-.910156h16.371093c.503907 0 .910157.40625.910157.910156v-.226563c0-.503906-.40625-.910156-.910157-.910156zm0 0" fill="#fff" fill-opacity=".392157"/><path d="m1.820312 16.78125v.21875c0 .503906.40625.910156.910157.910156h16.371093c.503907 0 .910157-.40625.910157-.910156v-.21875c0 .503906-.40625.90625-.910157.90625h-16.371093c-.503907 0-.910157-.402344-.910157-.90625zm0 0" fill-opacity=".235294"/><path d="m63.539387-115.736752h380.96362c11.726153 0 21.179795 9.453643 21.179795 21.179796v275.155542c0 11.635252-9.453642 21.179795-21.179795 21.179795h-380.96362c-11.726153 0-21.179796-9.544543-21.179796-21.179795v-275.155542c0-11.726153 9.453643-21.179796 21.179796-21.179796zm0 0" fill="none" stroke="#212121" stroke-linecap="round" stroke-linejoin="round" stroke-width="3" transform="matrix(.0429729 0 0 .0429729 0 9.239163)"/><path d="m8.640625 7.449219c2.011719 0 3.640625 1.628906 3.640625 3.636719 0 2.011718-1.628906 3.640624-3.640625 3.640624-2.007813 0-3.636719-1.628906-3.636719-3.640624 0-2.007813 1.628906-3.636719 3.636719-3.636719zm0 0" fill="url(#h)"/><path d="m13.1875 7.449219c2.011719 0 3.640625 1.628906 3.640625 3.636719 0 2.011718-1.628906 3.640624-3.640625 3.640624-2.007812 0-3.636719-1.628906-3.636719-3.640624 0-2.007813 1.628907-3.636719 3.636719-3.636719zm0 0" fill="url(#i)"/><path d="m10.914062 8.242188c-.832031.667968-1.363281 1.691406-1.363281 2.84375 0 1.15625.53125 2.179687 1.363281 2.84375.832032-.664063 1.367188-1.6875 1.367188-2.84375 0-1.152344-.535156-2.175782-1.367188-2.84375zm0 0" fill="url(#j)"/><g fill="#212121"><path d="m8.640625 7.382812c-2.050781 0-3.703125 1.652344-3.703125 3.703126 0 2.050781 1.652344 3.703124 3.703125 3.703124.882813 0 1.691406-.304687 2.324219-.816406-.03125-.027344-.066406-.054687-.101563-.082031-.609375.480469-1.378906.769531-2.222656.769531-1.980469 0-3.574219-1.59375-3.574219-3.574218 0-1.980469 1.59375-3.574219 3.574219-3.574219.84375 0 1.613281.289062 2.222656.773437.035157-.027344.070313-.054687.101563-.082031-.632813-.511719-1.441406-.820313-2.324219-.820313zm0 0"/><path d="m13.1875 7.382812c-.878906 0-1.6875.308594-2.324219.820313.035157.027344.070313.054687.101563.082031.609375-.484375 1.382812-.773437 2.222656-.773437 1.984375 0 3.574219 1.59375 3.574219 3.574219 0 1.980468-1.589844 3.574218-3.574219 3.574218-.839844 0-1.613281-.289062-2.222656-.769531-.03125.027344-.066406.054687-.101563.082031.636719.511719 1.445313.816406 2.324219.816406 2.050781 0 3.703125-1.652343 3.703125-3.703124 0-2.050782-1.652344-3.703126-3.703125-3.703126zm0 0"/></g></svg>

<?xml version="1.0" encoding="UTF-8"?>
<svg xmlns="http://www.w3.org/2000/svg" xmlns:xlink="http://www.w3.org/1999/xlink" width="22pt" height="22pt" viewBox="0 0 22 22" version="1.1">
<defs>
<linearGradient id="linear0" gradientUnits="userSpaceOnUse" x1="254" y1="233.5" x2="254" y2="254.66667" gradientTransform="matrix(0.0429729,0,0,0.0429729,0.454795,7.874776)">
<stop offset="0" style="stop-color:rgb(0%,0%,0%);stop-opacity:0.27451;"/>
<stop offset="1" style="stop-color:rgb(0%,0%,0%);stop-opacity:0;"/>
</linearGradient>
<radialGradient id="radial0" gradientUnits="userSpaceOnUse" cx="450.90894" cy="189.57936" fx="450.90894" fy="189.57936" r="21.166656" gradientTransform="matrix(0.000000119742,-0.0537161,-0.0966889,-0.0000000698078,36.749414,42.357404)">
<stop offset="0" style="stop-color:rgb(0%,0%,0%);stop-opacity:0.313725;"/>
<stop offset="0.222222" style="stop-color:rgb(0%,0%,0%);stop-opacity:0.27451;"/>
<stop offset="1" style="stop-color:rgb(0%,0%,0%);stop-opacity:0;"/>
</radialGradient>
<radialGradient id="radial1" gradientUnits="userSpaceOnUse" cx="450.90894" cy="189.57936" fx="450.90894" fy="189.57936" r="21.166656" gradientTransform="matrix(-0.000000119742,0.0537161,0.0966889,0.0000000698078,-14.919205,-6.53953)">
<stop offset="0" style="stop-color:rgb(0%,0%,0%);stop-opacity:0.313725;"/>
<stop offset="0.222222" style="stop-color:rgb(0%,0%,0%);stop-opacity:0.27451;"/>
<stop offset="1" style="stop-color:rgb(0%,0%,0%);stop-opacity:0;"/>
</radialGradient>
<radialGradient id="radial2" gradientUnits="userSpaceOnUse" cx="450.90894" cy="189.57936" fx="450.90894" fy="189.57936" r="21.166656" gradientTransform="matrix(-0.000000119742,-0.0537161,0.0966889,-0.0000000698078,-14.919205,42.357404)">
<stop offset="0" style="stop-color:rgb(0%,0%,0%);stop-opacity:0.313725;"/>
<stop offset="0.222222" style="stop-color:rgb(0%,0%,0%);stop-opacity:0.27451;"/>
<stop offset="1" style="stop-color:rgb(0%,0%,0%);stop-opacity:0;"/>
</radialGradient>
<radialGradient id="radial3" gradientUnits="userSpaceOnUse" cx="450.90894" cy="189.57936" fx="450.90894" fy="189.57936" r="21.166656" gradientTransform="matrix(0.000000119742,0.0537161,-0.0966889,0.0000000698078,36.749413,-6.53953)">
<stop offset="0" style="stop-color:rgb(0%,0%,0%);stop-opacity:0.313725;"/>
<stop offset="0.222222" style="stop-color:rgb(0%,0%,0%);stop-opacity:0.27451;"/>
<stop offset="1" style="stop-color:rgb(0%,0%,0%);stop-opacity:0;"/>
</radialGradient>
<linearGradient id="linear1" gradientUnits="userSpaceOnUse" x1="254" y1="275.83334" x2="254" y2="-189.83333" gradientTransform="matrix(0.0429729,0,0,0.0429729,0,9.239163)">
<stop offset="0" style="stop-color:rgb(25.882353%,25.882353%,25.882353%);stop-opacity:1;"/>
<stop offset="1" style="stop-color:rgb(38.039216%,38.039216%,38.039216%);stop-opacity:1;"/>
</linearGradient>
<linearGradient id="linear2" gradientUnits="userSpaceOnUse" x1="190.5" y1="196.45833" x2="185.20833" y2="-115.75" gradientTransform="matrix(0.0429729,0,0,0.0429729,0,9.239163)">
<stop offset="0" style="stop-color:rgb(95.686275%,26.27451%,21.176471%);stop-opacity:1;"/>
<stop offset="1" style="stop-color:rgb(93.72549%,32.54902%,31.372549%);stop-opacity:1;"/>
</linearGradient>
<linearGradient id="linear3" gradientUnits="userSpaceOnUse" x1="301.625" y1="201.75" x2="301.625" y2="-115.75" gradientTransform="matrix(0.0429729,0,0,0.0429729,0,9.239164)">
<stop offset="0" style="stop-color:rgb(100%,65.490196%,14.901961%);stop-opacity:1;"/>
<stop offset="1" style="stop-color:rgb(100%,71.764706%,30.196078%);stop-opacity:1;"/>
</linearGradient>
<linearGradient id="linear4" gradientUnits="userSpaceOnUse" x1="301.625" y1="201.75" x2="301.625" y2="-115.75" gradientTransform="matrix(0.0429729,0,0,0.0429729,0,9.239163)">
<stop offset="0" style="stop-color:rgb(100%,43.921569%,26.27451%);stop-opacity:1;"/>
<stop offset="1" style="stop-color:rgb(100%,54.117647%,39.607843%);stop-opacity:1;"/>
</linearGradient>
</defs>
<g id="surface1">
<path style=" stroke:none;fill-rule:nonzero;fill:url(#linear0);" d="M 3.183594 17.910156 L 18.648438 17.910156 L 18.648438 18.820312 L 3.183594 18.820312 Z M 3.183594 17.910156 "/>
<path style=" stroke:none;fill-rule:nonzero;fill:url(#radial0);" d="M 18.648438 17.910156 L 20.464844 17.910156 L 20.464844 17 L 18.648438 17 Z M 18.648438 17.910156 "/>
<path style=" stroke:none;fill-rule:nonzero;fill:url(#radial1);" d="M 3.183594 17.910156 L 1.363281 17.910156 L 1.363281 18.820312 L 3.183594 18.820312 Z M 3.183594 17.910156 "/>
<path style=" stroke:none;fill-rule:nonzero;fill:url(#radial2);" d="M 3.183594 17.910156 L 1.363281 17.910156 L 1.363281 17 L 3.183594 17 Z M 3.183594 17.910156 "/>
<path style=" stroke:none;fill-rule:nonzero;fill:url(#radial3);" d="M 18.648438 17.910156 L 20.464844 17.910156 L 20.464844 18.820312 L 18.648438 18.820312 Z M 18.648438 17.910156 "/>
<path style=" stroke:none;fill-rule:nonzero;fill:url(#linear1);" d="M 2.730469 4.265625 L 19.101562 4.265625 C 19.605469 4.265625 20.011719 4.671875 20.011719 5.175781 L 20.011719 17 C 20.011719 17.5 19.605469 17.910156 19.101562 17.910156 L 2.730469 17.910156 C 2.226562 17.910156 1.820312 17.5 1.820312 17 L 1.820312 5.175781 C 1.820312 4.671875 2.226562 4.265625 2.730469 4.265625 Z M 2.730469 4.265625 "/>
<path style=" stroke:none;fill-rule:nonzero;fill:rgb(100%,100%,100%);fill-opacity:0.392157;" d="M 2.730469 4.265625 C 2.226562 4.265625 1.820312 4.671875 1.820312 5.175781 L 1.820312 5.402344 C 1.820312 4.898438 2.226562 4.492188 2.730469 4.492188 L 19.101562 4.492188 C 19.605469 4.492188 20.011719 4.898438 20.011719 5.402344 L 20.011719 5.175781 C 20.011719 4.671875 19.605469 4.265625 19.101562 4.265625 Z M 2.730469 4.265625 "/>
<path style=" stroke:none;fill-rule:nonzero;fill:rgb(0%,0%,0%);fill-opacity:0.235294;" d="M 1.820312 16.78125 L 1.820312 17 C 1.820312 17.503906 2.226562 17.910156 2.730469 17.910156 L 19.101562 17.910156 C 19.605469 17.910156 20.011719 17.503906 20.011719 17 L 20.011719 16.78125 C 20.011719 17.285156 19.605469 17.6875 19.101562 17.6875 L 2.730469 17.6875 C 2.226562 17.6875 1.820312 17.285156 1.820312 16.78125 Z M 1.820312 16.78125 "/>
<path style="fill:none;stroke-width:3;stroke-linecap:round;stroke-linejoin:round;stroke:rgb(12.941176%,12.941176%,12.941176%);stroke-opacity:1;stroke-miterlimit:4;" d="M 63.539387 -115.736752 L 444.503007 -115.736752 C 456.22916 -115.736752 465.682802 -106.283109 465.682802 -94.556956 L 465.682802 180.598586 C 465.682802 192.233838 456.22916 201.778381 444.503007 201.778381 L 63.539387 201.778381 C 51.813234 201.778381 42.359591 192.233838 42.359591 180.598586 L 42.359591 -94.556956 C 42.359591 -106.283109 51.813234 -115.736752 63.539387 -115.736752 Z M 63.539387 -115.736752 " transform="matrix(0.0429729,0,0,0.0429729,0,9.239163)"/>
<path style=" stroke:none;fill-rule:nonzero;fill:url(#linear2);" d="M 8.640625 7.449219 C 10.652344 7.449219 12.28125 9.078125 12.28125 11.085938 C 12.28125 13.097656 10.652344 14.726562 8.640625 14.726562 C 6.632812 14.726562 5.003906 13.097656 5.003906 11.085938 C 5.003906 9.078125 6.632812 7.449219 8.640625 7.449219 Z M 8.640625 7.449219 "/>
<path style=" stroke:none;fill-rule:nonzero;fill:url(#linear3);" d="M 13.1875 7.449219 C 15.199219 7.449219 16.828125 9.078125 16.828125 11.085938 C 16.828125 13.097656 15.199219 14.726562 13.1875 14.726562 C 11.179688 14.726562 9.550781 13.097656 9.550781 11.085938 C 9.550781 9.078125 11.179688 7.449219 13.1875 7.449219 Z M 13.1875 7.449219 "/>
<path style=" stroke:none;fill-rule:nonzero;fill:url(#linear4);" d="M 10.914062 8.242188 C 10.082031 8.910156 9.550781 9.933594 9.550781 11.085938 C 9.550781 12.242188 10.082031 13.265625 10.914062 13.929688 C 11.746094 13.265625 12.28125 12.242188 12.28125 11.085938 C 12.28125 9.933594 11.746094 8.910156 10.914062 8.242188 Z M 10.914062 8.242188 "/>
<path style=" stroke:none;fill-rule:nonzero;fill:rgb(12.941176%,12.941176%,12.941176%);fill-opacity:1;" d="M 8.640625 7.382812 C 6.589844 7.382812 4.9375 9.035156 4.9375 11.085938 C 4.9375 13.136719 6.589844 14.789062 8.640625 14.789062 C 9.523438 14.789062 10.332031 14.484375 10.964844 13.972656 C 10.933594 13.945312 10.898438 13.917969 10.863281 13.890625 C 10.253906 14.371094 9.484375 14.660156 8.640625 14.660156 C 6.660156 14.660156 5.066406 13.066406 5.066406 11.085938 C 5.066406 9.105469 6.660156 7.511719 8.640625 7.511719 C 9.484375 7.511719 10.253906 7.800781 10.863281 8.285156 C 10.898438 8.257812 10.933594 8.230469 10.964844 8.203125 C 10.332031 7.691406 9.523438 7.382812 8.640625 7.382812 Z M 8.640625 7.382812 "/>
<path style=" stroke:none;fill-rule:nonzero;fill:rgb(12.941176%,12.941176%,12.941176%);fill-opacity:1;" d="M 13.1875 7.382812 C 12.308594 7.382812 11.5 7.691406 10.863281 8.203125 C 10.898438 8.230469 10.933594 8.257812 10.964844 8.285156 C 11.574219 7.800781 12.347656 7.511719 13.1875 7.511719 C 15.171875 7.511719 16.761719 9.105469 16.761719 11.085938 C 16.761719 13.066406 15.171875 14.660156 13.1875 14.660156 C 12.347656 14.660156 11.574219 14.371094 10.964844 13.890625 C 10.933594 13.917969 10.898438 13.945312 10.863281 13.972656 C 11.5 14.484375 12.308594 14.789062 13.1875 14.789062 C 15.238281 14.789062 16.890625 13.136719 16.890625 11.085938 C 16.890625 9.035156 15.238281 7.382812 13.1875 7.382812 Z M 13.1875 7.382812 "/>
</g>
</svg>
